build/assets/utils/france.svg

<?xml version="1.0" encoding="UTF-8" standalone="no"?>
<svg width="49px" height="49px" viewBox="0 0 49 49" version="1.1" xmlns="http://www.w3.org/2000/svg" xmlns:xlink="http://www.w3.org/1999/xlink" xmlns:sketch="http://www.bohemiancoding.com/sketch/ns">
    <!-- Generator: Sketch 3.0.4 (8054) - http://www.bohemiancoding.com/sketch -->
    <title>france</title>
    <desc>Created with Sketch.</desc>
    <defs></defs>
    <g id="Page-4" stroke="none" stroke-width="1" fill="none" fill-rule="evenodd" sketch:type="MSPage">
        <path d="M27.436,1 L33.58,5.6824 L36.8625,6.39184 L37.921,8.73328 L42.0535,9.64576 L43.325,11.68 L47.9845,12.49024 L46.077,20.52592 L40.7825,27.34384 L43.7495,29.78224 L44.0655,38.42176 L46.183,39.33904 L46.8195,40.86496 L41.2045,44.72992 L31.4615,42.49504 L28.5985,45.03808 L28.7075,49 L23.1975,48.19024 L13.981,46.45696 L10.1695,42.7984 L12.0755,40.7632 L13.134,28.66384 L9.639,26.12032 L7.9455,21.74848 L0.9525,19.7152 L-7.10542736e-15,15.84832 L3.9195,13.81504 L7.7335,15.34 L10.8065,15.1384 L10.1695,8.52736 L12.606,8.62768 L14.7235,10.56112 L18.009,10.36 L19.5965,8.22016 L23.1975,6.08512 L24.1505,2.12176 L27.436,1 Z" id="France-2" fill="#FC3432" sketch:type="MSShapeGroup"></path>
    </g>
</svg>

<?xml version="1.0" encoding="utf-8"?>
<!-- Generator: Adobe Illustrator 16.0.0, SVG Export Plug-In . SVG Version: 6.00 Build 0)  -->
<!DOCTYPE svg PUBLIC "-//W3C//DTD SVG 1.1//EN" "http://www.w3.org/Graphics/SVG/1.1/DTD/svg11.dtd">
<svg version="1.1" id="Layer_1" xmlns:sketch="http://www.bohemiancoding.com/sketch/ns"
	 xmlns="http://www.w3.org/2000/svg" xmlns:xlink="http://www.w3.org/1999/xlink" x="0px" y="0px" width="49px" height="49px"
	 viewBox="0 0 49 49" enable-background="new 0 0 49 49" xml:space="preserve">
<title>france</title>
<desc>Created with Sketch.</desc>
<g id="Page-4" sketch:type="MSPage">
	<path id="France-2" sketch:type="MSShapeGroup" fill="#CB0001" d="M27.436,1l6.145,4.683l3.282,0.709l1.059,2.342l4.133,0.912
		l1.271,2.035l4.659,0.81l-1.907,8.036l-5.294,6.818l2.967,2.438l0.315,8.64l2.118,0.917l0.636,1.526l-5.614,3.865l-9.744-2.235
		l-2.862,2.543L28.707,49l-5.51-0.81l-9.216-1.733l-3.812-3.658l1.906-2.035l1.058-12.1L9.639,26.12l-1.694-4.372l-6.993-2.033
		L0,15.848l3.919-2.033l3.814,1.525l3.073-0.202l-0.637-6.611l2.437,0.101l2.118,1.933l3.285-0.201l1.588-2.14l3.601-2.135
		l0.953-3.963L27.436,1z"/>
</g>
</svg>
